icons/arrow-sort.svg

<svg width="24" height="25" viewBox="0 0 24 25" fill="none" xmlns="http://www.w3.org/2000/svg">
<path fill-rule="evenodd" clip-rule="evenodd" d="M16.7 4.25C17.1142 4.25 17.45 4.58579 17.45 5V19.9C17.45 20.3142 17.1142 20.65 16.7 20.65C16.2858 20.65 15.95 20.3142 15.95 19.9V5C15.95 4.58579 16.2858 4.25 16.7 4.25Z" fill="black"/>
<path fill-rule="evenodd" clip-rule="evenodd" d="M16.7303 5.73031L13.0303 9.43031C12.7374 9.7232 12.2626 9.7232 11.9697 9.43031C11.6768 9.13741 11.6768 8.66254 11.9697 8.36965L15.6697 4.66965C16.2612 4.07813 17.2329 4.07676 17.8262 4.66554L21.6232 8.36262C21.92 8.65158 21.9263 9.12642 21.6374 9.42319C21.3484 9.71996 20.8736 9.72629 20.5768 9.43733L16.7696 5.73035C16.7695 5.7302 16.7645 5.72498 16.75 5.72498C16.7356 5.72498 16.7306 5.73008 16.7303 5.73031Z" fill="black"/>
<path fill-rule="evenodd" clip-rule="evenodd" d="M12.0697 15.3697C12.3626 15.0768 12.8375 15.0768 13.1304 15.3697L16.8304 19.0697C16.8305 19.0698 16.8356 19.075 16.85 19.075C16.8644 19.075 16.8695 19.0699 16.8697 19.0697L16.8697 19.0697L20.5697 15.3697C20.8626 15.0768 21.3375 15.0768 21.6304 15.3697C21.9233 15.6626 21.9233 16.1375 21.6304 16.4304L17.9304 20.1304C17.3375 20.7232 16.3626 20.7232 15.7697 20.1304L12.0697 16.4304C11.7768 16.1375 11.7768 15.6626 12.0697 15.3697Z" fill="black"/>
<path fill-rule="evenodd" clip-rule="evenodd" d="M4.90002 5.25C4.21424 5.25 3.65002 5.81421 3.65002 6.5V8.5C3.65002 9.16207 4.08661 9.75 4.90002 9.75H6.90002C7.58581 9.75 8.15002 9.18579 8.15002 8.5V6.5C8.15002 5.81421 7.58581 5.25 6.90002 5.25H4.90002ZM2.15002 6.5C2.15002 4.98579 3.38581 3.75 4.90002 3.75H6.90002C8.41424 3.75 9.65002 4.98579 9.65002 6.5V8.5C9.65002 10.0142 8.41424 11.25 6.90002 11.25H4.90002C3.11344 11.25 2.15002 9.83793 2.15002 8.5V6.5Z" fill="black"/>
<path fill-rule="evenodd" clip-rule="evenodd" d="M4.90002 15.25C4.21424 15.25 3.65002 15.8142 3.65002 16.5V18.5C3.65002 18.8935 3.77414 19.2003 3.96144 19.4014C4.1408 19.5941 4.43309 19.75 4.90002 19.75H6.90002C7.58581 19.75 8.15002 19.1858 8.15002 18.5V16.5C8.15002 15.8142 7.58581 15.25 6.90002 15.25H4.90002ZM2.15002 16.5C2.15002 14.9858 3.38581 13.75 4.90002 13.75H6.90002C8.41424 13.75 9.65002 14.9858 9.65002 16.5V18.5C9.65002 20.0142 8.41424 21.25 6.90002 21.25H4.90002C4.06696 21.25 3.35925 20.9559 2.8636 20.4236C2.37591 19.8997 2.15002 19.2065 2.15002 18.5V16.5Z" fill="black"/>
</svg>

<svg xmlns="http://www.w3.org/2000/svg" fill="none" viewBox="0 0 24 25">
  <path fill="#000" fill-rule="evenodd" d="M16.7 4.25a.75.75 0 0 1 .75.75v14.9a.75.75 0 0 1-1.5 0V5a.75.75 0 0 1 .75-.75Z" clip-rule="evenodd"/>
  <path fill="#000" fill-rule="evenodd" d="m16.73 5.73-3.7 3.7a.75.75 0 1 1-1.06-1.06l3.7-3.7a1.535 1.535 0 0 1 2.156-.004l3.797 3.697a.75.75 0 0 1-1.046 1.074L16.77 5.73s-.005-.005-.02-.005c-.014 0-.02.005-.02.005Zm-4.66 9.64a.75.75 0 0 1 1.06 0l3.7 3.7s.006.005.02.005.02-.005.02-.005l3.7-3.7a.75.75 0 0 1 1.06 1.06l-3.7 3.7a1.535 1.535 0 0 1-2.16 0l-3.7-3.7a.75.75 0 0 1 0-1.06ZM4.9 5.25c-.686 0-1.25.564-1.25 1.25v2c0 .662.437 1.25 1.25 1.25h2c.686 0 1.25-.564 1.25-1.25v-2c0-.686-.564-1.25-1.25-1.25h-2ZM2.15 6.5A2.756 2.756 0 0 1 4.9 3.75h2A2.756 2.756 0 0 1 9.65 6.5v2a2.756 2.756 0 0 1-2.75 2.75h-2c-1.787 0-2.75-1.412-2.75-2.75v-2Zm2.75 8.75c-.686 0-1.25.564-1.25 1.25v2c0 .393.124.7.311.901.18.193.472.349.939.349h2c.686 0 1.25-.564 1.25-1.25v-2c0-.686-.564-1.25-1.25-1.25h-2ZM2.15 16.5a2.756 2.756 0 0 1 2.75-2.75h2a2.756 2.756 0 0 1 2.75 2.75v2a2.756 2.756 0 0 1-2.75 2.75h-2c-.833 0-1.54-.294-2.036-.826-.488-.524-.714-1.218-.714-1.924v-2Z" clip-rule="evenodd"/>
</svg>
